X: 1
T:Battering Ram, The
M:6/8
L:1/8
R:jig
K:G
B|dBG BAG|dBG G2 B|dBG AGE|GED D2 B|dBG BAG|BdB BAG|AGA BAB| GED D2 :|
|:B|deg aga|bge edB|deg aga|bge ega|bag age|ged ege|dBG AGE|
GED D2 :|:d/c/|B2 G A2 G|B2 D Ddc|B2 G AGE|GED Ddc|B2G A2G|BdB B
AG|
AGA BAB|GED D2 :|
